X:6
T:Hard Times in Old England
M:3/4
L:1/4
K:G clef=treble
G3/-A/ | "G"B G A | B G A | B G B | "D"A- G F | "C"G A G |
"D"F E D/D/ | "C"E C E | "G"D2 D | "G"G G D | E E C | "C"D  E C | 
"G"D2 F/G/ | "D"A3/ B/ c | B A F |"G" G3 | D3/ G/ F | "C"E D C | "D"D E F | "G"G3-  | G z2 |] 
W: Come all brother tradesmen that travel along;
W: Oh, pray come and tell me where the trade is all gone.
W: Long time I have travelled and cannot find none,
W: And it's,
W: 
W: Chorus: Oh, the hard times of Old England,
W: In Old England very hard times.
W: 
W: Provisions you buy at the shop, it is true,
W: But, if you've no money, there's none there for you.
W: So, what's a poor man and his family to do?
W: And it's,
W: 
W: [Chorus]
W: 
W: If you go to a shop and you ask for a job,
W: They will answer you there with a shake and a nod;
W: So, that's enough to make a man turn out and rob.
W: And it's,
W: 
W: [Chorus]
W: 
W: You will see the poor tradesman a-walking the street
W: From morning till night, for employment to seek,
W: And scarcely they've got any shoes to their feet.
W: And it's,
W: 
W: [Chorus]
W: 
W: Our soldiers and sailors have just come from war;
W: Been fighting for their Queen and their country, 'tis sure
W: Come home to be starved, better stayed where they were.
W: And it's,
W: 
W: [Chorus]
W: 
W: And now to conclude and to finish my song,
W: Let us hope that these hard times they will not last long;
W: I hope soon to have occasion to alter my song.
W: And it's,
W: Oh, the good times of Old England,
W: In Old En-ge-land jolly good times.
W: 
